X: 14
T: The Irish Washerwoman
R: jig
M: 6/8
L: 1/8
K: Gmaj
|:BGG DGG|BGB dcB|cAA EAA|cAc edc|
BGG DGG|BGB dcB|cBc Adc|BGG G3:|
|:gdg gdg|gdg bag|fdf fdf|fdf agf|
egg dgg| cgg B2B|cBc Adc|1BGG G2d:|2BGG G2A||
|:BGG D3|BGB dcB|cAA E3|cAc edc|
B3 D3|BGB dcB|cBc Adc|BGG G3:|
|:g3 gdg|gdg bag|f3 fdf|fdf agf|
e2g d2g| cgg B3|cBc Adc|1BGG G2d:|2BGG G2A||


Tune 92	Setting 25137

